scripts/debs/qogir-icon-theme/usr/share/icons/Qogir/scalable/apps/org.xfce.panel.directorymenu.svg

<svg width="64" height="64" version="1.1" viewBox="0 0 16.933 16.933" xmlns="http://www.w3.org/2000/svg">
 <g transform="translate(0,-280.07)">
  <path d="m3.175 282.45c-0.293 0-0.265 0.264-0.265 0.53h-1.058c-0.265 0-0.265 0-0.265 0.264v5.556c0 0.293 0.237 0.53 0.53 0.53h12.7a0.529 0.529 0 0 0 0.529-0.53v-5.556c0-0.265 0-0.265-0.265-0.265h-7.408c0-0.265 0.028-0.53-0.265-0.53z" fill="#ffffff" fill-opacity=".976" stroke="#000000" stroke-opacity=".268" stroke-width=".529" style="paint-order:markers stroke fill"/>
  <path d="m3.175 282.45c-0.293 0-0.265 0.264-0.265 0.53h-1.058c-0.265 0-0.265 0-0.265 0.264v5.556c0 0.293 0.237 0.53 0.53 0.53h12.7a0.529 0.529 0 0 0 0.529-0.53v-5.556c0-0.265 0-0.265-0.265-0.265h-7.408c0-0.265 0.028-0.53-0.265-0.53z" fill="#ffffff" fill-opacity=".976" style="paint-order:markers stroke fill"/>
  <path d="m8.467 284.3c-0.293 0-0.382 0.276-0.53 0.53l-0.308 0.528h-6.835c-0.265 0-0.265 0.265-0.265 0.265v8.996c0 0.264 0.265 0.264 0.265 0.264h15.346c0.264 0 0.264-0.264 0.264-0.264v-10.054c0-0.265-0.264-0.265-0.264-0.265z" fill="none" stroke="#003779" stroke-opacity=".561" stroke-width=".529" style="paint-order:markers stroke fill"/>
  <path d="m8.467 284.3c-0.293 0-0.382 0.276-0.53 0.53l-0.308 0.528h-6.835c-0.265 0-0.265 0.265-0.265 0.265v8.996c0 0.264 0.265 0.264 0.265 0.264h15.346c0.264 0 0.264-0.264 0.264-0.264v-10.054c0-0.265-0.264-0.265-0.264-0.265z" fill="#6ba4e7" style="paint-order:markers stroke fill"/>
 </g>
 <path transform="scale(.26458)" d="m21 23.004c-1.1077 0-2 0.89233-2 2v3.002h26v-3.002c0-1.1077-0.89233-2-2-2h-22zm1.002 1.9961a1.0016 1.0016 0 0 1 1 1.002 1.0016 1.0016 0 0 1-1 1.002 1.0016 1.0016 0 0 1-1.002-1.002 1.0016 1.0016 0 0 1 1.002-1.002zm-3.002 4.002v5.002h26v-5.002h-26zm3.002 2a1.0016 1.0016 0 0 1 1 1.002 1.0016 1.0016 0 0 1-1 1.002 1.0016 1.0016 0 0 1-1.002-1.002 1.0016 1.0016 0 0 1 1.002-1.002zm-3.002 4.002v5.002h26v-5.002h-26zm3.002 1.9961a1.0016 1.0016 0 0 1 1 1.002 1.0016 1.0016 0 0 1-1 1.002 1.0016 1.0016 0 0 1-1.002-1.002 1.0016 1.0016 0 0 1 1.002-1.002zm-3.002 4.002v5.002h26v-5.002h-26zm3.002 2a1.0016 1.0016 0 0 1 1 1.002 1.0016 1.0016 0 0 1-1 1.002 1.0016 1.0016 0 0 1-1.002-1.002 1.0016 1.0016 0 0 1 1.002-1.002zm-3.002 4.0039v4.002c0 1.1077 0.89233 2 2 2h22c1.1077 0 2-0.89233 2-2v-4.002h-26zm3.002 1.9941a1.0016 1.0016 0 0 1 1 1.002 1.0016 1.0016 0 0 1-1 1.002 1.0016 1.0016 0 0 1-1.002-1.002 1.0016 1.0016 0 0 1 1.002-1.002z" fill="#000000" opacity=".15" style="paint-order:markers stroke fill"/>
</svg>

<svg xmlns="http://www.w3.org/2000/svg" width="64" height="64" viewBox="0 0 16.933 16.933"><path fill="#fff" fill-opacity=".976" stroke="#000" stroke-opacity=".268" stroke-width=".529" d="M3.175 282.45c-.293 0-.265.264-.265.53H1.852c-.265 0-.265 0-.265.264v5.556c0 .293.237.53.53.53h12.7a.53.53 0 0 0 .529-.53v-5.556c0-.265 0-.265-.265-.265H7.673c0-.265.028-.53-.265-.53z" style="paint-order:markers stroke fill" transform="translate(0 -280.07)"/><path fill="#fff" fill-opacity=".976" d="M3.175 282.45c-.293 0-.265.264-.265.53H1.852c-.265 0-.265 0-.265.264v5.556c0 .293.237.53.53.53h12.7a.53.53 0 0 0 .529-.53v-5.556c0-.265 0-.265-.265-.265H7.673c0-.265.028-.53-.265-.53z" style="paint-order:markers stroke fill" transform="translate(0 -280.07)"/><path fill="none" stroke="#003779" stroke-opacity=".561" stroke-width=".529" d="M8.467 284.3c-.293 0-.382.276-.53.53l-.308.528H.794c-.265 0-.265.265-.265.265v8.996c0 .264.265.264.265.264H16.14c.264 0 .264-.264.264-.264v-10.054c0-.265-.264-.265-.264-.265z" style="paint-order:markers stroke fill" transform="translate(0 -280.07)"/><path fill="#6ba4e7" d="M8.467 284.3c-.293 0-.382.276-.53.53l-.308.528H.794c-.265 0-.265.265-.265.265v8.996c0 .264.265.264.265.264H16.14c.264 0 .264-.264.264-.264v-10.054c0-.265-.264-.265-.264-.265z" style="paint-order:markers stroke fill" transform="translate(0 -280.07)"/><path d="M21 23.004c-1.108 0-2 .892-2 2v3.002h26v-3.002c0-1.108-.892-2-2-2zM22.002 25a1 1 0 0 1 1 1.002 1 1 0 0 1-1 1.002A1 1 0 0 1 21 26.002 1 1 0 0 1 22.002 25M19 29.002v5.002h26v-5.002zm3.002 2a1 1 0 0 1 1 1.002 1 1 0 0 1-1 1.002A1 1 0 0 1 21 32.004a1 1 0 0 1 1.002-1.002M19 35.004v5.002h26v-5.002zM22.002 37a1 1 0 0 1 1 1.002 1 1 0 0 1-1 1.002A1 1 0 0 1 21 38.002 1 1 0 0 1 22.002 37M19 41.002v5.002h26v-5.002zm3.002 2a1 1 0 0 1 1 1.002 1 1 0 0 1-1 1.002A1 1 0 0 1 21 44.004a1 1 0 0 1 1.002-1.002M19 47.006v4.002c0 1.108.892 2 2 2h22c1.108 0 2-.892 2-2v-4.002zM22.002 49a1 1 0 0 1 1 1.002 1 1 0 0 1-1 1.002A1 1 0 0 1 21 50.002 1 1 0 0 1 22.002 49" opacity=".15" style="paint-order:markers stroke fill" transform="scale(.26458)"/></svg>
